X: 38632
T: Stories To Tell
R: waltz
M: 3/4
K: Eminor
M:6/8
f|g3 f2 e|d B2- B3|A3- A2 G|B3- B3|g3 f2 e|d B2- B3|
A3- A2 G|E3- E2:|F|G3 F G2|d B2- B3|A3- A2 G|B3- BBA|
G3 F G2|d B2- B3|A3- A3|B3- BBA|G3 F G2|d B2- B3|
A3- A2 G|B3-BBA|G3 F G2|d B2-B3|A3- A2 G|E3- E2||

